X:248
T:We Now Implore God the Holy Ghost
%%stretchlast false
M:4/4
L:1/4
K:Eb clef=C1
"^I"[EGBe]2 "^V¹"[DFBf] "^V"[B,Bdf] | "^I¹"[G,Be] [G,EBe] "^IV"[A,EAc]2 | "^I"[E,EGB]2 "^IV"[A,EAc]2 | "^vii°¹"[F,FAd]2 "^I"[E,GBe]4 | [EBeg]2 | "^I¹"[G,Beb]2 "^IV"[A,Aec']2 | "^V"[B,Fdb]2 "^vi"[CEeg]2 | "^I¹"[G,EBe]2 "^IV"[A,EAc]2 | "^vii°¹"[F,FAd]2 "^I"[E,GBe]4 | [EBeg]3/2 [E,Beg]/ | "^I¹"[G,Beg] "^V"[B,Bdf] "^I"[EBeg]2 | [EGBe] "^vi"[CGce] "^V"[B,Bdf] "^ii¹"[A,cf] | "^V/vi"[G,=Bdg]2 "^vi"[CGce]2 | "^ii"[F,Acf] "^V"[B,Bdf] "^I"[E,Beg]2 | "^I¹"[G,EBe]2 "^IV"[A,EAc] "^vi"[CEGe] | "^I¹"[G,EBe] "^V"[B,DBf] "^vi"[CEGe]2 | "^V/V"[F,F=Ac]2 "^V"[B,DFB]4 | "^IV"[A,EAc]3/2 "^vii°¹"[F,FAd]/ | "^I"[E,GBe] "^IV²"[E,Ace] [E,ABe] "^I"[E,GBe]/ [E,FBe]/ | [E,GBe]2 |]
